healthcode/jkb/static/ymicon.svg

<svg height="50" viewBox="0 0 51 50" width="51" xmlns="http://www.w3.org/2000/svg"><g fill="none" transform="translate(.955664 .000001)"><path d="m0 0h50v50h-50z" fill="#000" opacity="0"/><path d="m25.9236147 31.4612639-1.8498459-1.8524625c-.9915703-1.0266485-.9773895-2.6585577.0318724-3.6678195 1.0092618-1.0092618 2.641171-1.0234427 3.6678195-.0318723l1.8498459 1.8498459 3.7023084-3.6996919-7.4020003-7.3993838-16.65122995 16.65123c-1.02142355 1.0217321-1.02142355 2.6779598 0 3.6996919l3.69969185 3.6996919c.4907672.4913134 1.1567183.7673764 1.8511542.7673764.694436 0 1.360387-.276063 1.8511542-.7673764l1.849846-1.849846-1.849846-1.8498459c-.9915703-1.0266485-.9773894-2.6585577.0318724-3.6678195s2.641171-1.0234427 3.6678195-.0318724l1.8498459 1.849846 3.6996919-3.7023084zm-20.35092184 9.2466132c-1.47233883-1.4720894-2.29951113-3.4688209-2.29951113-5.5508461s.8271723-4.0787566 2.29951113-5.550846l16.65122994-16.65123-3.6996918-3.69969191c-.9663243-1.03048355-.9401566-2.64196938.0591158-3.64053509.9992725-.99856571 2.6107764-1.02359333 3.640576-.05654033l22.2007679 22.20076783c.6801692.6569294.9529522 1.6297428.7135045 2.5445385-.2394476.9147958-.9538622 1.6292103-1.8686579 1.868658-.9147957.2394476-1.8876091-.0333354-2.5445385-.7135046l-3.6996919-3.6996919-16.65123 16.65123c-1.4720894 1.4723388-3.4688209 2.2995111-5.5508461 2.2995111s-4.0787566-.8271723-5.55084605-2.2995111l-1.84984595 1.8498459c-.65692941.6801692-1.62974278.9529522-2.54453851.7135046-.91479574-.2394476-1.62921033-.9538622-1.86865795-1.8686579-.23944762-.9147958.03333536-1.8876092.71350457-2.5445386l1.84984595-1.8498459zm37.00215184-22.2007678-11.0990757-11.09907568c-.6608863-.66135369-.9187424-1.62504835-.6764364-2.52806952.2423059-.90302118.9479619-1.60817847 1.8511541-1.84984595.9031923-.24166748 1.8667044.01686988 2.5275907.67822358l11.0990757 11.10169217c.6801692.6569294.9529522 1.6297428.7135046 2.5445385-.2394477.9147957-.9538622 1.6292103-1.868658 1.8686579-.9147957.2394477-1.8876091-.0333353-2.5445385-.7135045z" fill="#1f90fb"/></g></svg>

<?xml version="1.0" encoding="UTF-8"?>
<svg width="51px" height="50px" viewBox="0 0 51 50" version="1.1" xmlns="http://www.w3.org/2000/svg" xmlns:xlink="http://www.w3.org/1999/xlink">
    <title>疫苗icon</title>
    <g id="页面-1" stroke="none" stroke-width="1" fill="none" fill-rule="evenodd">
        <g id="画板" transform="translate(-355.000000, -843.000000)" fill-rule="nonzero">
            <g id="编组" transform="translate(355.955664, 843.000001)">
                <rect id="矩形" fill="#000000" opacity="0" x="0" y="1.64477485e-15" width="50" height="50"></rect>
                <path d="M25.9236147,31.4612639 L24.0737688,29.6088014 C23.0821985,28.5821529 23.0963793,26.9502437 24.1056412,25.9409819 C25.114903,24.9317201 26.7468122,24.9175392 27.7734607,25.9091096 L29.6233066,27.7589555 L33.325615,24.0592636 L25.9236147,16.6598798 L9.27238475,33.3111098 C8.2509612,34.3328419 8.2509612,35.9890696 9.27238475,37.0108017 L12.9720766,40.7104936 C13.4628438,41.201807 14.1287949,41.47787 14.8232308,41.47787 C15.5176668,41.47787 16.1836178,41.201807 16.674385,40.7104936 L18.524231,38.8606476 L16.674385,37.0108017 C15.6828147,35.9841532 15.6969956,34.352244 16.7062574,33.3429822 C17.7155192,32.3337204 19.3474284,32.3195395 20.3740769,33.3111098 L22.2239228,35.1609558 L25.9236147,31.4586474 L25.9236147,31.4612639 Z M5.57269286,40.7078771 C4.10035403,39.2357877 3.27318173,37.2390562 3.27318173,35.157031 C3.27318173,33.0750058 4.10035403,31.0782744 5.57269286,29.606185 L22.2239228,12.954955 L18.524231,9.25526309 C17.5579067,8.22477954 17.5840744,6.61329371 18.5833468,5.614728 C19.5826193,4.61616229 21.1941232,4.59113467 22.2239228,5.55818767 L44.4246907,27.7589555 C45.1048599,28.4158849 45.3776429,29.3886983 45.1381952,30.303494 C44.8987476,31.2182898 44.184333,31.9327043 43.2695373,32.172152 C42.3547416,32.4115996 41.3819282,32.1388166 40.7249988,31.4586474 L37.0253069,27.7589555 L20.3740769,44.4101855 C18.9019875,45.8825243 16.905256,46.7096966 14.8232308,46.7096966 C12.7412056,46.7096966 10.7444742,45.8825243 9.27238475,44.4101855 L7.4225388,46.2600314 C6.76560939,46.9402006 5.79279602,47.2129836 4.87800029,46.973536 C3.96320455,46.7340884 3.24878996,46.0196738 3.00934234,45.1048781 C2.76989472,44.1900823 3.0426777,43.2172689 3.72284691,42.5603395 L5.57269286,40.7104936 L5.57269286,40.7078771 Z M42.5748447,18.5071093 L31.475769,7.40803362 C30.8148827,6.74667993 30.5570266,5.78298527 30.7993326,4.8799641 C31.0416385,3.97694292 31.7472945,3.27178563 32.6504867,3.03011815 C33.553679,2.78845067 34.5171911,3.04698803 35.1780774,3.70834173 L46.2771531,14.8100339 C46.9573223,15.4669633 47.2301053,16.4397767 46.9906577,17.3545724 C46.75121,18.2693681 46.0367955,18.9837827 45.1219997,19.2232303 C44.207204,19.462678 43.2343906,19.189895 42.5774612,18.5097258 L42.5748447,18.5071093 Z" id="形状" fill="#1F90FB"></path>
            </g>
        </g>
    </g>
</svg>
